rospo-icon-theme-classic-common/16x16/apps/aegisub.svg

<svg height="16" width="16" xmlns="http://www.w3.org/2000/svg"><path d="m4.0495259 1.2292499a1.7739876 1.8193311 86.170725 0 0 -.7048566.6706978l-3.09937415 5.2255015a1.7739876 1.8193311 86.170725 0 0 -.003048 1.7743649l3.08155245 5.2156719a1.7739876 1.8193311 86.170725 0 0 1.5738842.884509l6.1808062-.01003a1.7739876 1.8193311 86.170725 0 0 1.57694-.889682l3.099294-5.2256367a1.7739876 1.8193311 86.170725 0 0  .003-1.7743649l-3.081504-5.2156736a1.7739876 1.8193311 86.170725 0 0 -1.574033-.8846051l-6.1807268.0101673a1.7739876 1.8193311 86.170725 0 0 -.8722212.2190619z" fill="#ff4141"/><path d="m4.326636 1.1108142a1.7739876 1.8193311 86.170725 0 0 -.27753.1187294 1.7739876 1.8193311 86.170725 0 0 -.7046131.6706413l-3.0989592 5.2255336a1.7739876 1.8193311 86.170725 0 0 -.002975 1.7737456l3.0811007 5.2161789a1.7739876 1.8193311 86.170725 0 0 1.5736613.884355l6.1808053-.01007a1.7739876 1.8193311 86.170725 0 0 1.245536-.484272z" opacity=".2"/><path d="m11.792412 1.1345601-7.9828893 13.3710919s-.051082.07627-.0625.09282a1.7739876 1.8193311 86.170725 0 0 1.1502978.401522l6.1808053-.01007a1.7739876 1.8193311 86.170725 0 0 1.577381-.889391l3.098959-5.2255353a1.7739876 1.8193311 86.170725 0 0  .003-1.774465l-3.0811248-5.2161784a1.7739876 1.8193311 86.170725 0 0 -.883929-.7497942z" opacity=".2"/><path d="m .00148602 7.9999989a1.7739876 1.8193311 86.170725 0 0  .24107153.8994652l3.08110185 5.2161789a1.7739876 1.8193311 86.170725 0 0 1.5736613.884355l6.1808053-.01007a1.7739876 1.8193311 86.170725 0 0 1.577381-.889391l3.098959-5.2255353a1.7739876 1.8193311 86.170725 0 0  .244048-.8749998h-15.99702798z" opacity=".2"/><path d="m8.0000001 5c-3.375 0-5.9999999 2.3333332-5.9999999 3.0546873 0 .9453125 2.625 2.9453127 5.9999999 2.9453127s5.9999999-2.3333334 5.9999999-2.9453127c0-.7213541-2.625-3.0546873-5.9999999-3.0546873z" fill="#fff"/><circle cx="8" cy="8" fill="#1b87e6" r="3"/><circle cx="8" cy="8" fill="#3f3f3f" r="1"/></svg>

<svg xmlns="http://www.w3.org/2000/svg" width="16" height="16" version="1">
 <path style="fill:#ff4141" d="M 4.0495259,1.2292499 A 1.7739876,1.8193311 86.170725 0 0 3.3446693,1.8999477 L 0.24529515,7.1254492 a 1.7739876,1.8193311 86.170725 0 0 -0.003048,1.7743649 L 3.3237996,14.115486 a 1.7739876,1.8193311 86.170725 0 0 1.5738842,0.884509 l 6.1808062,-0.01003 a 1.7739876,1.8193311 86.170725 0 0 1.57694,-0.889682 l 3.099294,-5.2256367 a 1.7739876,1.8193311 86.170725 0 0 0.003,-1.7743649 L 12.67622,1.8846078 A 1.7739876,1.8193311 86.170725 0 0 11.102187,1.0000027 L 4.9214602,1.01017 A 1.7739876,1.8193311 86.170725 0 0 4.049239,1.2292319 Z"/>
 <path style="opacity:0.2" d="M 4.326636,1.1108142 A 1.7739876,1.8193311 86.170725 0 0 4.049106,1.2295436 1.7739876,1.8193311 86.170725 0 0 3.3444929,1.9001849 L 0.2455337,7.1257185 a 1.7739876,1.8193311 86.170725 0 0 -0.002975,1.7737456 L 3.3236594,14.115643 a 1.7739876,1.8193311 86.170725 0 0 1.5736613,0.884355 l 6.1808053,-0.01007 a 1.7739876,1.8193311 86.170725 0 0 1.245536,-0.484272 L 4.326636,1.1108142 Z"/>
 <path style="opacity:0.2" d="M 11.792412,1.1345601 3.8095227,14.505652 c 0,0 -0.051082,0.07627 -0.0625,0.09282 a 1.7739876,1.8193311 86.170725 0 0 1.1502978,0.401522 l 6.1808053,-0.01007 a 1.7739876,1.8193311 86.170725 0 0 1.577381,-0.889391 l 3.098959,-5.2255353 a 1.7739876,1.8193311 86.170725 0 0 0.003,-1.774465 L 12.676341,1.8843543 A 1.7739876,1.8193311 86.170725 0 0 11.792412,1.1345601 Z"/>
 <path style="opacity:0.2" d="M 0.00148602,7.9999989 A 1.7739876,1.8193311 86.170725 0 0 0.24255755,8.8994641 L 3.3236594,14.115643 a 1.7739876,1.8193311 86.170725 0 0 1.5736613,0.884355 l 6.1808053,-0.01007 a 1.7739876,1.8193311 86.170725 0 0 1.577381,-0.889391 l 3.098959,-5.2255353 a 1.7739876,1.8193311 86.170725 0 0 0.244048,-0.8749998 l -15.99702798,0 z"/>
 <path style="fill:#ffffff" d="M 8.0000001,5 C 4.6250001,5 2.0000002,7.3333332 2.0000002,8.0546873 2.0000002,8.9999998 4.6250002,11 8.0000001,11 11.375,11 14,8.6666666 14,8.0546873 14,7.3333332 11.375,5 8.0000001,5 Z"/>
 <circle style="fill:#1b87e6" cx="8" cy="8" r="3"/>
 <circle style="fill:#3f3f3f" cx="8" cy="8" r="1"/>
</svg>
